new-front/public/user.svg

<svg fill="none" height="17" viewBox="0 0 17 17" width="17" xmlns="http://www.w3.org/2000/svg"><g stroke="#000" stroke-linecap="round" stroke-linejoin="round"><path d="m8.5 10.625c2.3472 0 4.25-1.90279 4.25-4.25s-1.9028-4.25-4.25-4.25c-2.34721 0-4.25 1.90279-4.25 4.25s1.90279 4.25 4.25 4.25z"/><path d="m2.05762 14.3431c.65314-1.1305 1.59229-2.0692 2.72311-2.7219 1.13081-.6526 2.41346-.9962 3.7191-.9962s2.58827.3436 3.71907.9963 2.0699 1.5914 2.7231 2.722"/></g></svg>

<svg width="17" height="17" viewBox="0 0 17 17" fill="none" xmlns="http://www.w3.org/2000/svg">
    <path d="M8.5 10.625C10.8472 10.625 12.75 8.72221 12.75 6.375C12.75 4.02779 10.8472 2.125 8.5 2.125C6.15279 2.125 4.25 4.02779 4.25 6.375C4.25 8.72221 6.15279 10.625 8.5 10.625Z" stroke="black" stroke-linecap="round" stroke-linejoin="round"/>
    <path d="M2.05762 14.3431C2.71076 13.2126 3.64991 12.2739 4.78073 11.6212C5.91154 10.9686 7.19419 10.625 8.49983 10.625C9.80547 10.625 11.0881 10.9686 12.2189 11.6213C13.3497 12.274 14.2888 13.2127 14.942 14.3433" stroke="black" stroke-linecap="round" stroke-linejoin="round"/>
</svg>
